img/donate-bitcoin.svg

<svg height="100" viewBox="0 0 300 100" width="300" xmlns="http://www.w3.org/2000/svg"><path d="m92.0121942 37.74816c2.5194175 0 4.6961165.4509091 6.5252427 1.3362424 1.8378641.8940606 3.3543691 2.0984243 4.5708741 3.6130909 1.2 1.5224243 2.093204 3.3018182 2.669903 5.3410909.572815 2.045091.860194 4.243394.860194 6.5968485 0 3.6150303-.663107 7.0303031-2.001942 10.249697-1.338835 3.2242424-3.15534 6.0208485-5.4660194 8.406303-2.3087379 2.3825455-5.0349515 4.2608485-8.1786408 5.6484849-3.1388349 1.388606-6.5514563 2.0829091-10.215534 2.0829091-.4737864 0-1.3067961-.0135758-2.4834951-.0378182s-2.5291262-.1454546-4.0436893-.3500606c-1.5242719-.2123637-3.1359224-.5265455-4.8378641-.947394-1.7009709-.4130909-3.3165049-.992-4.8378641-1.7270303l13.6038835-57.0918788 12.184466-1.8860606-4.8708737 20.2598788c1.0427184-.4693333 2.0932038-.8329697 3.1417475-1.0976969 1.0495146-.2608485 2.1757282-.3966061 3.3796117-.3966061zm-10.2203884 33.6203636c1.8349515 0 3.5640777-.4509091 5.1883495-1.3362424 1.6291263-.886303 3.0349515-2.0829091 4.2126214-3.5733333 1.1776699-1.4972121 2.1097087-3.1835152 2.7893204-5.0676364.6796116-1.8841212 1.023301-3.849697 1.023301-5.8947879 0-2.5124848-.4203884-4.4722424-1.2582525-5.8889697-.837864-1.4109091-2.3883495-2.1207272-4.6398058-2.1207272-.7378641 0-1.6883495.140606-2.8669903.3917575-1.1825243.2666667-2.2407767.8203637-3.1893204 1.6533334l-5.1864077 21.5156363c.3126213.0552728.5893203.1076364.8252427.1570909.2310679.0533334.4864077.0911516.7407767.1173334.268932.0300606.576699.0455757.9485437.0455757.3718446 0 .8368932.0009697 1.4126213.0009697zm37.4825242 8.5614546h-11.637864l9.828155-41.3061818h11.717476zm5.663107-46.3389091c-1.624272 0-3.097087-.4829091-4.403884-1.4506667-1.317475-.9619394-1.969903-2.4426666-1.969903-4.438303 0-1.097697.223301-2.1275152.66602-3.0991515.449514-.969697 1.036893-1.8046061 1.772815-2.5144243.734952-.704 1.586408-1.2664242 2.553398-1.6901818.972816-.4169697 2.007767-.6254545 3.11068-.6254545 1.623301 0 3.08835.4829091 4.4 1.4506666 1.306796.9726061 1.964078 2.4533334 1.964078 4.4383031 0 1.1015757-.22233 2.1352727-.668932 3.1049697-.44369.9696969-1.031068 1.804606-1.766991 2.5144242-.729126.7049697-1.588349 1.2654546-2.553398 1.6853333-.973786.4237576-2.004854.6244849-3.103883.6244849zm14.443689-5.2586667 12.189321-1.8860606-2.993204 12.1755152h13.054369l-2.357282 9.5786666h-12.975728l-3.456311 14.4484849c-.318446 1.2043636-.499029 2.3292121-.549514 3.3745454-.057282 1.0501819.075728 1.952.390291 2.7112728.312621.7612121.874757 1.3478788 1.690291 1.7629091.811651.4218181 1.973787.6341818 3.498058.6341818 1.25534 0 2.478641-.1192728 3.661166-.3558788 1.175728-.2327273 2.36699-.5566061 3.572815-.9803636l.867961 8.9561212c-1.572815.576-3.275728 1.0715151-5.110679 1.4884848-1.837864.4227879-4.013593.6264243-6.528156.6264243-3.615534 0-6.418446-.5362425-8.415534-1.6038788-1.994174-1.075394-3.403883-2.5444849-4.247573-4.4043637-.832038-1.8530909-1.203883-3.9893333-1.1-6.3961212.107767-2.412606.471845-4.9483636 1.1-7.6189091zm21.737864 35.1030303c0-3.5578182.576699-6.9129697 1.729127-10.0538182 1.150485-3.1437575 2.807766-5.8928484 4.958252-8.2521212 2.142718-2.3476363 4.753398-4.2075151 7.826214-5.5728485 3.058252-1.3575757 6.482524-2.0421818 10.25631-2.0421818 2.362136 0 4.471845.2230303 6.328156.6700606 1.864077.4509091 3.550485 1.033697 5.075728 1.7648485l-4.013593 9.1151515c-1.048543-.4247272-2.136893-.7990303-3.262135-1.1384242-1.126214-.3461818-2.500971-.5129697-4.127185-.5129697-3.884466 0-6.95534 1.3372121-9.240777 4.0029091-2.276699 2.6676364-3.423301 6.2584242-3.423301 10.7626667 0 2.6695757.576699 4.8281212 1.733981 6.4795151 1.151456 1.6513939 3.278641 2.4727273 6.36699 2.4727273 1.524272 0 2.995146-.1590303 4.403884-.4693334 1.419417-.3141818 2.672815-.7098181 3.776699-1.1772121l.868932 9.344c-1.471845.5701818-3.095146 1.0850909-4.875728 1.536-1.784466.435394-3.908738.6613334-6.371845.6613334-3.251456 0-6.003883-.4751516-8.25534-1.4109091-2.252427-.9503031-4.113592-2.2118788-5.579611-3.8099394-1.473787-1.6019394-2.532039-3.4724849-3.186408-5.619394-.654369-2.1449697-.98835-4.3985454-.98835-6.7500606zm51.699029 17.5903031c-2.777669 0-5.190291-.4227879-7.236893-1.2596364-2.040776-.8368485-3.731068-2.0111515-5.067961-3.5335758-1.338835-1.5146666-2.340777-3.3095757-3.027184-5.3779394-.686408-2.0673939-1.016505-4.3568484-1.016505-6.8654545 0-3.1466667.505825-6.2923636 1.528155-9.4293333 1.017476-3.1437576 2.527185-5.9684849 4.525243-8.4790303 1.982524-2.5144243 4.428155-4.5701819 7.307767-6.1730909 2.876699-1.5922425 6.185437-2.3932122 9.901942-2.3932122 2.727184 0 5.127184.4237576 7.201941 1.2606061 2.065049.8349091 3.76602 2.0189091 5.11068 3.5335757 1.330097 1.5224243 2.340777 3.3095758 3.020388 5.3808485.684466 2.0635152 1.02233 4.3587879 1.02233 6.8693334 0 3.1369697-.499029 6.2826666-1.48932 9.4293333-.991262 3.1311515-2.462136 5.9626667-4.403884 8.4790303-1.937864 2.5105455-4.361165 4.5653333-7.271844 6.1614545-2.906796 1.5961213-6.27767 2.397091-10.104855 2.397091zm5.816505-33.6116364c-1.725242 0-3.250485.5003636-4.55631 1.4884848-1.31068.9997576-2.411651 2.2564849-3.29903 3.7721213-.897087 1.5224242-1.562135 3.1825454-2.01165 4.9871515-.445631 1.8084848-.664078 3.5180606-.664078 5.142303 0 2.6210909.423301 4.662303 1.25534 6.1313939.843689 1.4613334 2.359223 2.1963637 4.562136 2.1963637 1.731068 0 3.248544-.4964849 4.562136-1.4952728 1.302913-.992 2.404854-2.2496969 3.299029-3.7682424.891262-1.5146666 1.562136-3.1796363 2.011651-4.9871515.439805-1.8026667.664077-3.5219394.664077-5.1432727 0-2.614303-.421359-4.6603637-1.261165-6.1275152-.838835-1.4613333-2.361165-2.1963636-4.562136-2.1963636zm30.134952 32.5158788h-11.647573l9.828155-41.3061818h11.723301zm5.654369-46.3389091c-1.623301 0-3.095146-.4829091-4.4-1.4506667-1.31068-.9619394-1.968932-2.4426666-1.968932-4.438303 0-1.097697.226213-2.1275152.669903-3.0991515.443689-.969697 1.034951-1.8046061 1.770873-2.5144243.731068-.704 1.590292-1.2664242 2.55534-1.6901818.96699-.4169697 2.001942-.6254545 3.100971-.6254545 1.627184 0 3.097087.4829091 4.405825 1.4506666 1.309709.9726061 1.970874 2.4533334 1.970874 4.4383031 0 1.1015757-.234951 2.1352727-.674757 3.1049697-.439806.9696969-1.031068 1.804606-1.764078 2.5144242-.737864.7049697-1.586408 1.2654546-2.553398 1.6853333-.974757.4237576-2.007767.6244849-3.112621.6244849zm12.636893 6.9110303c.883495-.2579394 1.869903-.5682424 2.942718-.905697 1.076699-.3374545 2.279612-.6516363 3.623301-.9347879 1.329126-.2918787 2.829126-.5284848 4.478641-.7117575 1.649515-.1871515 3.529126-.2783031 5.617476-.2783031 6.137864 0 10.368932 1.7852122 12.704854 5.3449697 2.333981 3.5597576 2.737864 8.4315152 1.223301 14.6065455l-5.353398 22.3030303h-11.714563l5.188349-21.833697c.316505-1.3633939.565049-2.6812121.748544-3.9689697.185437-1.2761212.174757-2.4009697-.041747-3.3745454-.206797-.9619394-.694175-1.7493334-1.450486-2.3592728-.767961-.6002424-1.928155-.9018181-3.501942-.9018181-1.517475 0-3.061165.1629091-4.636893.4770909l-7.628155 31.9602424h-11.719418zm-204.893204 17.0084848c-4.1495146 16.6235152-21.0067961 26.7403637-37.6524272 22.5949091-16.63883496-4.1444848-26.76796117-20.982303-22.61650486-37.6048485 4.14757282-16.6254545 21.00485436-26.7432727 37.64563106-22.5987878 16.6446602 4.1444848 26.7728155 20.9842424 22.623301 37.6087272zm-16.4368932-11.9272727c.6184466-4.1289697-2.5291262-6.348606-6.8330097-7.8293333l1.3961165-5.5932121-3.4087379-.8484849-1.3592233 5.4458182c-.8961165-.2230303-1.8165048-.4334546-2.731068-.6419394l1.3689321-5.481697-3.4067961-.8484848-1.3970874 5.5912727c-.7417476-.1687273-1.4699029-.3355151-2.176699-.5110303l.0038835-.0174545-4.7009709-1.1723637-.9067961 3.6363637s2.5291262.5789091 2.4757281.6147878c1.3805825.3442425 1.6300971 1.2567273 1.5883495 1.9801213l-1.5902912 6.3718787c.0951456.0242425.2184466.0591516.3543689.1134546-.1135922-.0281212-.2349515-.0591515-.3601942-.0892121l-2.2291262 8.9260606c-.168932.4189091-.5970874 1.0472727-1.5621359.8087272.0339806.0494546-2.4776699-.6176969-2.4776699-.6176969l-1.692233 3.8972121 4.4359223 1.1044848c.8252427.2065455 1.6339806.4227879 2.4300971.6264243l-1.4106796 5.6572121 3.4048544.8484849 1.3970873-5.597091c.9300971.2521213 1.8330097.4848485 2.7165049.704l-1.392233 5.5709091 3.4087378.8484849 1.4106797-5.6465455c5.8126213 1.0986667 10.1834951.6555152 12.0233009-4.5953939 1.4825243-4.2278788-.0737864-6.6666667-3.1320388-8.2569697 2.2271845-.5129697 3.9048544-1.9762424 4.3524272-4.9987879zm-7.7883495 10.9081212c-1.0533981 4.2278788-8.1805826 1.9423031-10.4912622 1.3692121l1.8718447-7.4947878c2.3106796.576 9.7203883 1.7163636 8.6194175 6.1255757zm1.0543689-10.9692121c-.9611651 3.8458182-6.8932039 1.8918788-8.8174757 1.4128485l1.6970873-6.7975758c1.9242719.4790303 8.1213593 1.3730909 7.1203884 5.3847273z"/></svg>

<svg xmlns="http://www.w3.org/2000/svg" width="300" height="100" viewBox="0 0 300 100" role="img">
  <path d="M92.0121942,37.74816 C94.5316117,37.74816 96.7083107,38.1990691 98.5374369,39.0844024 C100.375301,39.978463 101.891806,41.1828267 103.108311,42.6974933 C104.308311,44.2199176 105.201515,45.9993115 105.778214,48.0385842 C106.351029,50.0836752 106.638408,52.2819782 106.638408,54.6354327 C106.638408,58.250463 105.975301,61.6657358 104.636466,64.8851297 C103.297631,68.1093721 101.481126,70.9059782 99.1704466,73.2914327 C96.8617087,75.6739782 94.1354951,77.5522812 90.9918058,78.9399176 C87.8529709,80.3285236 84.4403495,81.0228267 80.7762718,81.0228267 C80.3024854,81.0228267 79.4694757,81.0092509 78.2927767,80.9850085 C77.1160777,80.9607661 75.7636505,80.8395539 74.2490874,80.6349479 C72.7248155,80.4225842 71.113165,80.1084024 69.4112233,79.6875539 C67.7102524,79.274463 66.0947184,78.6955539 64.5733592,77.9605236 L78.1772427,20.8686448 L90.3617087,18.9825842 L85.490835,39.242463 C86.5335534,38.7731297 87.5840388,38.4094933 88.6325825,38.1447661 C89.6820971,37.8839176 90.8083107,37.74816 92.0121942,37.74816 Z M81.7918058,71.3685236 C83.6267573,71.3685236 85.3558835,70.9176145 86.9801553,70.0322812 C88.6092816,69.1459782 90.0151068,67.9493721 91.1927767,66.4589479 C92.3704466,64.9617358 93.3024854,63.2754327 93.9820971,61.3913115 C94.6617087,59.5071903 95.0053981,57.5416145 95.0053981,55.4965236 C95.0053981,52.9840388 94.5850097,51.0242812 93.7471456,49.6075539 C92.9092816,48.1966448 91.3587961,47.4868267 89.1073398,47.4868267 C88.3694757,47.4868267 87.4189903,47.6274327 86.2403495,47.8785842 C85.0578252,48.1452509 83.9995728,48.6989479 83.0510291,49.5319176 L77.8646214,71.0475539 C78.1772427,71.1028267 78.4539417,71.1551903 78.6898641,71.2046448 C78.920932,71.2579782 79.1762718,71.2957964 79.4306408,71.3219782 C79.6995728,71.3520388 80.0073398,71.3675539 80.3791845,71.3675539 C80.7510291,71.3675539 81.2160777,71.3685236 81.7918058,71.3685236 Z M119.27433,79.9299782 L107.636466,79.9299782 L117.464621,38.6237964 L129.182097,38.6237964 L119.27433,79.9299782 Z M124.937437,33.5910691 C123.313165,33.5910691 121.84035,33.10816 120.533553,32.1404024 C119.216078,31.178463 118.56365,29.6977358 118.56365,27.7020994 C118.56365,26.6044024 118.786951,25.5745842 119.22967,24.6029479 C119.679184,23.6332509 120.266563,22.7983418 121.002485,22.0885236 C121.737437,21.3845236 122.588893,20.8220994 123.555883,20.3983418 C124.528699,19.9813721 125.56365,19.7728873 126.666563,19.7728873 C128.289864,19.7728873 129.754913,20.2557964 131.066563,21.2235539 C132.373359,22.19616 133.030641,23.6768873 133.030641,25.661857 C133.030641,26.7634327 132.808311,27.7971297 132.361709,28.7668267 C131.918019,29.7365236 131.330641,30.5714327 130.594718,31.2812509 C129.865592,31.9862206 129.006369,32.5467055 128.04132,32.9665842 C127.067534,33.3903418 126.036466,33.5910691 124.937437,33.5910691 Z M139.381126,28.3324024 L151.570447,26.4463418 L148.577243,38.621857 L161.631612,38.621857 L159.27433,48.2005236 L146.298602,48.2005236 L142.842291,62.6490085 C142.523845,63.8533721 142.343262,64.9782206 142.292777,66.0235539 C142.235495,67.0737358 142.368505,67.9755539 142.683068,68.7348267 C142.995689,69.4960388 143.557825,70.0827055 144.373359,70.4977358 C145.18501,70.9195539 146.347146,71.1319176 147.871417,71.1319176 C149.126757,71.1319176 150.350058,71.0126448 151.532583,70.7760388 C152.708311,70.5433115 153.899573,70.2194327 155.105398,69.7956752 L155.973359,78.7517964 C154.400544,79.3277964 152.697631,79.8233115 150.86268,80.2402812 C149.024816,80.6630691 146.849087,80.8667055 144.334524,80.8667055 C140.71899,80.8667055 137.916078,80.330463 135.91899,79.2628267 C133.924816,78.1874327 132.515107,76.7183418 131.671417,74.858463 C130.839379,73.0053721 130.467534,70.8691297 130.571417,68.4623418 C130.679184,66.0497358 131.043262,63.5139782 131.671417,60.8434327 L139.381126,28.3324024 Z M161.11899,63.4354327 C161.11899,59.8776145 161.695689,56.522463 162.848117,53.3816145 C163.998602,50.237857 165.655883,47.4887661 167.806369,45.1294933 C169.949087,42.781857 172.559767,40.9219782 175.632583,39.5566448 C178.690835,38.1990691 182.115107,37.514463 185.888893,37.514463 C188.251029,37.514463 190.360738,37.7374933 192.217049,38.1845236 C194.081126,38.6354327 195.767534,39.2182206 197.292777,39.9493721 L193.279184,49.0645236 C192.230641,48.6397964 191.142291,48.2654933 190.017049,47.9260994 C188.890835,47.5799176 187.516078,47.4131297 185.889864,47.4131297 C182.005398,47.4131297 178.934524,48.7503418 176.649087,51.4160388 C174.372388,54.0836752 173.225786,57.674463 173.225786,62.1787055 C173.225786,64.8482812 173.802485,67.0068267 174.959767,68.6582206 C176.111223,70.3096145 178.238408,71.1309479 181.326757,71.1309479 C182.851029,71.1309479 184.321903,70.9719176 185.730641,70.6616145 C187.150058,70.3474327 188.403456,69.9517964 189.50734,69.4844024 L190.376272,78.8284024 C188.904427,79.3985842 187.281126,79.9134933 185.500544,80.3644024 C183.716078,80.7997964 181.591806,81.0257358 179.128699,81.0257358 C175.877243,81.0257358 173.124816,80.5505842 170.873359,79.6148267 C168.620932,78.6645236 166.759767,77.4029479 165.293748,75.8048873 C163.819961,74.2029479 162.761709,72.3324024 162.10734,70.1854933 C161.452971,68.0405236 161.11899,65.7869479 161.11899,63.4354327 Z M212.818019,81.0257358 C210.04035,81.0257358 207.627728,80.6029479 205.581126,79.7660994 C203.54035,78.9292509 201.850058,77.7549479 200.513165,76.2325236 C199.17433,74.717857 198.172388,72.9229479 197.485981,70.8545842 C196.799573,68.7871903 196.469476,66.4977358 196.469476,63.9891297 C196.469476,60.842463 196.975301,57.6967661 197.997631,54.5597964 C199.015107,51.4160388 200.524816,48.5913115 202.522874,46.0807661 C204.505398,43.5663418 206.951029,41.5105842 209.830641,39.9076752 C212.70734,38.3154327 216.016078,37.514463 219.732583,37.514463 C222.459767,37.514463 224.859767,37.9382206 226.934524,38.7750691 C228.999573,39.6099782 230.700544,40.7939782 232.045204,42.3086448 C233.375301,43.8310691 234.385981,45.6182206 235.065592,47.6894933 C235.750058,49.7530085 236.087922,52.0482812 236.087922,54.5588267 C236.087922,57.6957964 235.588893,60.8414933 234.598602,63.98816 C233.60734,67.1193115 232.136466,69.9508267 230.194718,72.4671903 C228.256854,74.9777358 225.833553,77.0325236 222.922874,78.6286448 C220.016078,80.2247661 216.645204,81.0257358 212.818019,81.0257358 Z M218.634524,47.4140994 C216.909282,47.4140994 215.384039,47.914463 214.078214,48.9025842 C212.767534,49.9023418 211.666563,51.1590691 210.779184,52.6747055 C209.882097,54.1971297 209.217049,55.8572509 208.767534,57.661857 C208.321903,59.4703418 208.103456,61.1799176 208.103456,62.80416 C208.103456,65.4252509 208.526757,67.466463 209.358796,68.9355539 C210.202485,70.3968873 211.718019,71.1319176 213.920932,71.1319176 C215.652,71.1319176 217.169476,70.6354327 218.483068,69.6366448 C219.785981,68.6446448 220.887922,67.3869479 221.782097,65.8684024 C222.673359,64.3537358 223.344233,62.6887661 223.793748,60.8812509 C224.233553,59.0785842 224.457825,57.3593115 224.457825,55.7379782 C224.457825,53.1236752 224.036466,51.0776145 223.19666,49.610463 C222.357825,48.1491297 220.835495,47.4140994 218.634524,47.4140994 Z M248.769476,79.9299782 L237.121903,79.9299782 L246.950058,38.6237964 L258.673359,38.6237964 L248.769476,79.9299782 Z M254.423845,33.5910691 C252.800544,33.5910691 251.328699,33.10816 250.023845,32.1404024 C248.713165,31.178463 248.054913,29.6977358 248.054913,27.7020994 C248.054913,26.6044024 248.281126,25.5745842 248.724816,24.6029479 C249.168505,23.6332509 249.759767,22.7983418 250.495689,22.0885236 C251.226757,21.3845236 252.085981,20.8220994 253.051029,20.3983418 C254.018019,19.9813721 255.052971,19.7728873 256.152,19.7728873 C257.779184,19.7728873 259.249087,20.2557964 260.557825,21.2235539 C261.867534,22.19616 262.528699,23.6768873 262.528699,25.661857 C262.528699,26.7634327 262.293748,27.7971297 261.853942,28.7668267 C261.414136,29.7365236 260.822874,30.5714327 260.089864,31.2812509 C259.352,31.9862206 258.503456,32.5467055 257.536466,32.9665842 C256.561709,33.3903418 255.528699,33.5910691 254.423845,33.5910691 Z M267.060738,40.5020994 C267.944233,40.24416 268.930641,39.933857 270.003456,39.5964024 C271.080155,39.2589479 272.283068,38.9447661 273.626757,38.6616145 C274.955883,38.3697358 276.455883,38.1331297 278.105398,37.949857 C279.754913,37.7627055 281.634524,37.6715539 283.722874,37.6715539 C289.860738,37.6715539 294.091806,39.4567661 296.427728,43.0165236 C298.761709,46.5762812 299.165592,51.4480388 297.651029,57.6230691 L292.297631,79.9260994 L280.583068,79.9260994 L285.771417,58.0924024 C286.087922,56.7290085 286.336466,55.4111903 286.519961,54.1234327 C286.705398,52.8473115 286.694718,51.722463 286.478214,50.7488873 C286.271417,49.7869479 285.784039,48.9995539 285.027728,48.3896145 C284.259767,47.7893721 283.099573,47.4877964 281.525786,47.4877964 C280.008311,47.4877964 278.464621,47.6507055 276.888893,47.9648873 L269.260738,79.9251297 L257.54132,79.9251297 L267.060738,40.5020994 Z M62.167534,57.5105842 C58.0180194,74.1340994 41.1607379,84.2509479 24.5151068,80.1054933 C7.87627184,75.9610085 -2.25285437,59.1231903 1.89860194,42.5006448 C6.04617476,25.8751903 22.9034563,15.7573721 39.544233,19.901857 C56.1888932,24.0463418 66.3170485,40.8860994 62.167534,57.5105842 Z M45.7306408,45.5833115 C46.3490874,41.4543418 43.2015146,39.2347055 38.8976311,37.7539782 L40.2937476,32.1607661 L36.8850097,31.3122812 L35.5257864,36.7580994 C34.6296699,36.5350691 33.7092816,36.3246448 32.7947184,36.11616 L34.1636505,30.634463 L30.7568544,29.7859782 L29.359767,35.3772509 C28.6180194,35.2085236 27.8898641,35.0417358 27.183068,34.8662206 L27.1869515,34.8487661 L22.4859806,33.6764024 L21.5791845,37.3127661 C21.5791845,37.3127661 24.1083107,37.8916752 24.0549126,37.9275539 C25.4354951,38.2717964 25.6850097,39.1842812 25.6432621,39.9076752 L24.0529709,46.2795539 C24.1481165,46.3037964 24.2714175,46.3387055 24.4073398,46.3930085 C24.2937476,46.3648873 24.1723883,46.333857 24.0471456,46.3037964 L21.8180194,55.229857 C21.6490874,55.6487661 21.220932,56.2771297 20.2558835,56.0385842 C20.2898641,56.0880388 17.7782136,55.4208873 17.7782136,55.4208873 L16.0859806,59.3180994 L20.5219029,60.4225842 C21.3471456,60.6291297 22.1558835,60.8453721 22.952,61.0490085 L21.5413204,66.7062206 L24.9461748,67.5547055 L26.3432621,61.9576145 C27.2733592,62.2097358 28.1762718,62.442463 29.059767,62.6616145 L27.667534,68.2325236 L31.0762718,69.0810085 L32.4869515,63.434463 C38.2995728,64.5331297 42.6704466,64.0899782 44.5102524,58.8390691 C45.9927767,54.6111903 44.436466,52.1724024 41.3782136,50.5820994 C43.6053981,50.0691297 45.283068,48.605857 45.7306408,45.5833115 Z M37.9422913,56.4914327 C36.8888932,60.7193115 29.7617087,58.4337358 27.4510291,57.8606448 L29.3228738,50.365857 C31.6335534,50.941857 39.0432621,52.0822206 37.9422913,56.4914327 Z M38.9966602,45.5222206 C38.0354951,49.3680388 32.1034563,47.4140994 30.1791845,46.9350691 L31.8762718,40.1374933 C33.8005437,40.6165236 39.9976311,41.5105842 38.9966602,45.5222206 Z"/>
</svg>
